!!!ONB: MCCC : IFC0054_03 : Extracted Monophonic Melody
!!!COM: Chopin, Frédéric
!!!OPR: Mazurkas
!!!OMV: 3
!!!SCT: Op.50
!!!ODT: 1841///
**kern
*thru
*staff1
*Ipiano
*>A
*clefG2
*k[b-e-a-d-g-]
*D-:
*M3/4
*MM120
=8
8A-
8d-
8e-
8g-
8f
8e-
=9
*>B
8f
16r
16g-
4g
4a-
=10
8b-
16r
16a-
2ff
=11
8ee-
16r
16dd-
4b-
4g-
=12
8f
16r
16b-
2a-
=13
8ee-
16r
16dd-
4b--
4g-
=14
8f
16r
16b--
2a-
=15
8f
16r
16b-
2a-
=16
8f
16r
16b--
2a-
=17
8b-
16r
16cc
4dd-
4ee-
=18
8ff
16r
16gg-
4gg
4aa-
=19
8ccc
16r
16bb-
4aa-
4gg-
=20
8ff
16r
16ee-
2dd-
=21
8b--
8cc
4dd-
4ee-
=22
8ff-
8gg
4aa-
4bb--
=23
8ccc
16r
16bb--
4aa-
4gg-
=24
8.ff-
16ee-
2dd-
=25
*>B
8f
16r
16g-
4g
4a-
=26
8b-
16r
16a-
2ff
=27
8ee-
16r
16dd-
4b-
4g-
=28
8f
16r
16b-
2a-
=29
8ee-
16r
16dd-
4b--
4g-
=30
8f
16r
16b--
2a-
=31
8f
16r
16b-
2a-
=32
8f
16r
16b--
2a-
=33
8b-
16r
16cc
4dd-
4ee-
=34
8ff
16r
16gg-
4gg
4aa-
=35
8ccc
16r
16bb-
4aa-
4gg-
=36
8ff
16r
16ee-
2dd-
=37
8b--
8cc
4dd-
4ee-
=38
8ff-
8gg
4aa-
4bb--
=39
8ccc
16r
16bb--
4aa-
4gg-
=40
8.ff-
16ee-
2dd-
=41
*>C
[2.ff-
=42
8ff-]
8ee-
8dd
8ee-
8.ccc-
16ee-
=43
4.aa-
8gg-
8ff-
8dd-
=44
8dd-
8ee-
2cc-
=45
[2.ee-
=46
8ee-]
8dd
8cc#
8dd
8.bb-
16dd
=47
4.gg
8ff
8ee-
8cc
=48
8cc
8dd
2b-
=49
4r
[2ff-
=50
8ff-]
8ee-
8dd
8ee-
8.ccc-
16ee-
=51
4.aa-
8gg-
8ff-
8dd-
=52
8dd-
16r
16ee-
2cc-
=53
[2.ee-
=54
8ee-]
8dd
8cc#
8dd
8.bb-
16dd
=55
4.gg
8ff
8ee-
8cc
=56
4cc-
2b-
=57
8e
16r
16g
4b-
4a-
=58
4g
4f
4r
=59
8g
8b-
4dd-
4cc
=60
4b-
4a-
4r
=61
8b
8dd
4ff
4ee
=62
4dd
4cc
4r
=63
8ee
8gg
4.bb-
8aa-
=64
2gg
4ff
=65
2.e
=66
4g
4f
4r
=67
2.g
=68
4b-
4a-
4r
=69
2.b
=70
4dd
4cc
4ee
=71
2.ee
=72
2gg
[4ff
=73
8ff]
8ee-
8dd
8ee-
8ff
8gg-
=74
8gg-
16r
16gg-
4.dd-
8ff
=75
8ff
16r
16ff
4..cc
16ee-
=76
8ee-
16r
16dd-
4.dd-
8dd-[
=77
8dd-]
8cc
8b
8cc
8dd-
8ee-
=78
8ee-
16r
16ee-
4.b-
8dd-
=79
8dd-
16r
16dd-
4..a
16cc
=80
8cc
16r
16b-
4b-
8r
8dd-
=81
4g-
8dd
8ee-
8ff
8gg-
=82
12gg-
12gg-
12gg-
4dd-
8r
8ff
=83
12ff
12ff
12ff
4cc
8r
16r
[16ee-
=84
8ee-]
16r
16dd-
4.dd-
8dd-[
=85
8dd-]
8cc
8b
8cc
8dd-
8ee-
=86
12ee-
12ee-
12ee-
4b-
8r
8dd-
=87
12dd-
12dd-
12dd-
4a
8r
8cc
=88
8dd-
8dd-
4a
4cc
=89
2.r
=90
2.r
=91
8dd-
8dd-
4a
4cc
=92
8dd-
8dd-
4a
4cc
=93
2.r
=94
2.r
=95
8f
16r
16g-
4g
4a-
=96
8b-
16r
16a-
2ff
=97
8ee-
16r
16dd-
4b-
4g-
=98
8f
16r
16b-
2a-
=99
8ee-
16r
16dd-
4b--
4g-
=100
8f
16r
16b--
2a-
=101
8f
16r
16b-
2a-
=102
8f
16r
16b--
2a-
=103
8b-
16r
16cc
4dd-
4ee-
=104
8ff
16r
16gg-
4gg
4aa-
=105
8ccc
16r
16bb-
4aa-
4gg-
=106
8ff
16r
16ee-
2dd-
=107
8b--
8cc
4dd-
4ee-
=108
8ff-
8gg
4aa-
4bb--
=109
8ccc
16r
16bb--
4aa-
4gg-
=110
8ff-
8ee-
2dd-
=111
2.f
==
*-
